assets/img/decor-login.svg

<svg width="469" height="92" viewBox="0 0 469 92" fill="none" xmlns="http://www.w3.org/2000/svg">
<path d="M0.375 87.0731C7.85937 79.3439 23.4427 65.1616 40.2083 53.1616C56.9792 41.1564 74.8594 31.2658 93.8646 23.4793C112.87 15.6981 132.995 10.0106 149.469 7.15119C165.937 4.28661 176.495 3.77619 184.714 4.65119C192.927 5.52619 198.766 7.71369 202.328 11.0522C205.885 14.396 207.432 18.9897 207.12 23.5939C206.807 28.1981 205.417 32.1356 203.219 36.3491C201.021 40.5679 198.005 45.0574 194.172 49.8074C190.333 54.5574 185.682 59.5627 180.302 64.6095C174.922 69.6512 169.594 74.0314 164.656 77.5522C159.714 81.0783 155.172 83.7502 151.052 85.5679C146.927 87.3908 143.234 88.3699 141.167 88.0262C139.099 87.6772 138.359 86.3387 138.797 84.4064C139.24 82.4741 141.266 79.5939 145.073 76.0314C148.88 72.4637 154.437 68.297 161.578 64.0106C168.719 59.7293 176.531 55.8804 184.573 52.422C192.615 48.9585 200.88 45.8908 209.38 43.2085C217.88 40.5314 226.604 38.2397 236.896 36.146C247.182 34.0574 257.901 32.7397 267.135 32.6616C276.375 32.5835 284.115 33.7241 290.354 36.0418C296.594 38.3647 301.375 41.8179 304.141 46.6668C306.906 51.5158 307.49 56.9793 306.156 61.9324C304.823 66.8908 301.526 71.4845 296.13 75.7397C290.734 80.0002 283.203 83.8752 278.49 85.3856C273.776 86.9012 273.13 86.4845 273.125 86.2502C273.12 86.0106 273.677 84.9429 275.344 83.1877C277.01 81.4272 279.786 79.1929 283.458 76.7918C287.125 74.396 291.292 72.0991 295.833 69.8804C300.375 67.6616 305.292 65.5106 310.583 63.4324C315.87 61.3543 321.536 59.3595 328.823 56.8335C336.109 54.3127 346.245 51.2814 358.766 48.297C371.292 45.3127 386.198 42.3804 403.479 39.5054C420.76 36.6252 440.432 33.9272 456.359 31.7762C472.286 29.6199 471.745 25.4689 461.12 26.8647C461.12 26.8647 439.839 29.5574 420.927 32.4897C402.016 35.422 385.453 38.3491 371.245 41.3335C357.036 44.3231 345.172 47.3595 335.682 50.4637C326.187 53.5679 320.245 55.5366 314.625 57.5991C309 59.6564 303.745 61.797 298.854 64.021C293.964 66.2449 289.437 68.5522 285.255 70.9533C281.078 73.3543 277.396 75.9949 274.74 78.3022C272.078 80.6095 270.38 82.6981 269.766 84.9168C269.151 87.1304 270.24 89.2345 272.833 90.2502C275.432 91.2658 284.833 87.5054 292.057 83.245C299.286 78.9845 304.469 74.1199 307.531 68.6147C310.599 63.1095 311.427 57.0262 309.974 50.4429C308.521 43.8647 303.979 38.8491 298.094 35.396C292.214 31.9481 284.922 29.8647 276.26 29.0835C267.604 28.3074 257.562 28.8074 246.125 30.5731C234.693 32.3387 225.677 34.4064 216.906 36.8699C208.135 39.3283 199.594 42.1877 191.281 45.4324C182.964 48.6824 174.875 52.3283 166.995 56.3804C159.109 60.4377 152.198 65.0835 147.005 69.2189C141.813 73.3543 138.271 77.0575 136.385 80.5106C134.505 83.9585 134.568 87.3439 137.047 90.0262C139.526 92.7085 144 92.2397 148.24 90.8491C152.479 89.4637 157.031 87.2189 161.911 84.1408C166.792 81.0575 172.01 77.1356 177.589 72.37C183.167 67.6043 188.49 62.3179 192.995 57.271C197.5 52.2241 201.198 47.3804 204.089 42.7397C206.979 38.0991 209.057 33.6512 210.318 29.2814C211.578 24.9116 211.318 18.3022 208.536 13.0366C205.755 7.77098 200.568 4.16161 193.245 2.19806C185.922 0.234521 176.479 -0.218603 164.849 0.781397C153.214 1.7814 132.057 6.09911 112.016 12.5574C91.9687 19.0158 73.0521 27.6199 55.2552 38.3595C37.4635 49.0939 20.8073 61.9689 12.8073 69.1147C-2.70313 84.0731 7.89063 79.2658 0.375 87.0731Z" fill="#121212"/>
</svg>

<svg width="469" height="92" fill="none" xmlns="http://www.w3.org/2000/svg"><path d="M.375 87.073c7.484-7.73 23.068-21.911 39.833-33.911a263.511 263.511 0 0153.657-29.683c19.005-7.78 39.13-13.468 55.604-16.328 16.468-2.864 27.026-3.375 35.245-2.5 8.213.875 14.052 3.063 17.614 6.401 3.557 3.344 5.104 7.938 4.792 12.542-.313 4.604-1.703 8.542-3.901 12.755-2.198 4.219-5.214 8.708-9.047 13.458-3.839 4.75-8.49 9.756-13.87 14.802-5.38 5.042-10.708 9.422-15.646 12.943-4.942 3.526-9.484 6.198-13.604 8.016-4.125 1.823-7.818 2.802-9.885 2.458-2.068-.349-2.808-1.687-2.37-3.62.443-1.932 2.469-4.812 6.276-8.375 3.807-3.567 9.364-7.734 16.505-12.02 7.141-4.282 14.953-8.13 22.995-11.589a261.913 261.913 0 0124.807-9.213c8.5-2.678 17.224-4.97 27.516-7.063 10.286-2.089 21.005-3.406 30.239-3.484 9.24-.078 16.98 1.062 23.219 3.38 6.24 2.323 11.021 5.776 13.787 10.625 2.765 4.849 3.349 10.312 2.015 15.265-1.333 4.959-4.63 9.552-10.026 13.808-5.396 4.26-12.927 8.135-17.64 9.646-4.714 1.515-5.36 1.099-5.365.864-.005-.24.552-1.307 2.219-3.062 1.666-1.76 4.442-3.995 8.114-6.396 3.667-2.396 7.834-4.693 12.375-6.912 4.542-2.218 9.459-4.37 14.75-6.448 5.287-2.078 10.953-4.073 18.24-6.599 7.286-2.52 17.422-5.552 29.943-8.536 12.526-2.984 27.432-5.917 44.713-8.792 17.281-2.88 36.953-5.578 52.88-7.729 15.927-2.156 15.386-6.307 4.761-4.911 0 0-21.281 2.692-40.193 5.625-18.911 2.932-35.474 5.86-49.682 8.843-14.209 2.99-26.073 6.026-35.563 9.13-9.495 3.105-15.437 5.074-21.057 7.136-5.625 2.057-10.88 4.198-15.771 6.422-4.89 2.224-9.417 4.531-13.599 6.932-4.177 2.401-7.859 5.042-10.515 7.35-2.662 2.306-4.36 4.395-4.974 6.614-.615 2.213.474 4.317 3.067 5.333 2.599 1.016 12-2.745 19.224-7.005 7.229-4.26 12.412-9.125 15.474-14.63 3.068-5.505 3.896-11.589 2.443-18.172-1.453-6.578-5.995-11.594-11.88-15.047-5.88-3.448-13.172-5.531-21.834-6.313-8.656-.776-18.698-.276-30.135 1.49-11.432 1.766-20.448 3.833-29.219 6.297a273.27 273.27 0 00-25.625 8.562 259.886 259.886 0 00-24.286 10.948c-7.886 4.058-14.797 8.703-19.99 12.839-5.192 4.135-8.734 7.839-10.62 11.292-1.88 3.448-1.817 6.833.662 9.515 2.479 2.683 6.953 2.214 11.193.823 4.239-1.385 8.791-3.63 13.671-6.708 4.881-3.084 10.099-7.005 15.678-11.771 5.578-4.766 10.901-10.052 15.406-15.099 4.505-5.047 8.203-9.89 11.094-14.531 2.89-4.64 4.968-9.089 6.229-13.459 1.26-4.37 1-10.979-1.782-16.244-2.781-5.266-7.968-8.875-15.291-10.839C185.922.235 176.479-.219 164.849.781c-11.635 1-32.792 5.318-52.833 11.776-20.047 6.459-38.964 15.063-56.76 25.802-17.792 10.735-34.449 23.61-42.449 30.756C-2.703 84.073 7.891 79.265.375 87.073z" fill="#121212"/></svg>
